X: 14314
T: Gallagher's Frolics
R: jig
M: 6/8
K: Edorian
B,|:E2E GFE|B2B dBA|BdB BdB|GFG AFD|
E2E GFE|B2B dBA|BAG FAF|1 GED E2B,:|2 GED E3||
|:e2f gfe|g2a bge|dcd fed|fag fed|
e2f gfe|dfe dBA|BAG FAF|1 GED E3:|2 GED E2B,||

